src/dsmComponents/Icons/device-mobile-sync-12px.svg

<?xml version="1.0" encoding="UTF-8"?>
<svg width="10px" height="12px" viewBox="0 0 10 12" version="1.1" xmlns="http://www.w3.org/2000/svg" xmlns:xlink="http://www.w3.org/1999/xlink">
    <!-- Generator: Sketch 59.1 (86144) - https://sketch.com -->
    <title>device-mobile-sync-12px</title>
    <desc>Created with Sketch.</desc>
    <defs>
        <path d="M9.00277992,9.61609935 L9.99992446,9.75972216 C9.83071205,10.8674591 8.91439665,11.7225672 7.77221291,11.839675 C7.04550605,11.9148008 6.32861956,11.6702738 5.8005862,11.1959502 L5.12373657,11.7918008 L5.10787291,9.64556044 L7.29630301,9.88419526 L6.55146626,10.5374949 C6.86118539,10.7827585 7.26230945,10.905022 7.66645515,10.8637765 C8.35236973,10.7930698 8.90231005,10.2797104 9.00277992,9.61609935 Z M6.04330025,1.07913678e-12 C6.87803109,1.07913678e-12 7.55412531,0.659928387 7.55412531,1.47305444 L7.55412531,1.47305444 L7.55412531,5.6042356 C7.16433244,5.6042356 6.79115865,5.67052305 6.438381,5.78173866 L6.438381,5.78173866 L6.438381,1.87446177 C6.438381,1.46789874 6.09995619,1.13793455 5.68296847,1.13793455 L5.68296847,1.13793455 L1.90137334,1.13793455 C1.48438562,1.13793455 1.14596081,1.46789874 1.14596081,1.87446177 L1.14596081,1.87446177 L1.14596081,9.94311744 C1.14596081,10.350417 1.48438562,10.6796447 1.90137334,10.6796447 L1.90137334,10.6796447 L4.19405037,10.6796447 L4.19405037,11.7844355 L1.51082506,11.7844355 C0.676849628,11.7844355 0,11.1245071 0,10.311381 L0,10.311381 L0,1.47305444 C0,0.659928387 0.676849628,1.07913678e-12 1.51082506,1.07913678e-12 L1.51082506,1.07913678e-12 Z M4.19420145,9.20659022 L4.19420145,9.94311744 L2.64409494,9.94311744 C2.43560108,9.94311744 2.26638867,9.77813534 2.26638867,9.57485383 C2.26638867,9.37157232 2.43560108,9.20659022 2.64409494,9.20659022 L2.64409494,9.20659022 L4.19420145,9.20659022 Z M9.3065313,7.11220142 L9.98413634,6.51708743 L10,8.66332774 L7.8115699,8.42469292 L8.55640665,7.77139328 C8.2459321,7.52539319 7.84556346,7.40312967 7.44141776,7.44511173 C6.75550318,7.51581834 6.20556286,8.02917781 6.10433758,8.69278883 L5.10794845,8.54916602 C5.27716086,7.44142909 6.19347626,6.58632099 7.33490459,6.46847664 C8.06236686,6.39408739 8.77925335,6.6378779 9.3065313,7.11220142 Z" id="path-1"></path>
    </defs>
    <g id="Final" stroke="none" stroke-width="1" fill="none" fill-rule="evenodd">
        <g id="All-Nucleo-Icons" transform="translate(-175.000000, -2333.000000)">
            <g id="Solo/Nucleo/12px/device-mobile-sync" transform="translate(168.000000, 2327.000000)">
                <g id="p-sync" transform="translate(7.000000, 6.000000)">
                    <mask id="mask-2" fill="white">
                        <use xlink:href="#path-1"></use>
                    </mask>
                    <g></g>
                    <g id="colour/neutral/chia" mask="url(#mask-2)" fill="#737373">
                        <g transform="translate(-19.230769, -18.000000)" id="Colour">
                            <rect x="0" y="0" width="49" height="48"></rect>
                        </g>
                    </g>
                </g>
            </g>
        </g>
    </g>
</svg>

<svg width="10" height="12" xmlns="http://www.w3.org/2000/svg" xmlns:xlink="http://www.w3.org/1999/xlink"><defs><path d="M9.003 9.616L10 9.76c-.17 1.107-1.086 1.963-2.228 2.08a2.565 2.565 0 01-1.971-.644l-.677.596-.016-2.146 2.188.238-.745.653c.31.246.711.368 1.115.327a1.494 1.494 0 001.337-1.248zM6.043 0c.835 0 1.511.66 1.511 1.473v4.131a3.7 3.7 0 00-1.116.178V1.874a.746.746 0 00-.755-.736H1.901a.746.746 0 00-.755.736v8.07c0 .406.338.736.755.736h2.293v1.104H1.511c-.834 0-1.511-.66-1.511-1.473V1.473C0 .66.677 0 1.51 0zM4.194 9.207v.736h-1.55a.373.373 0 01-.378-.368c0-.203.17-.368.378-.368h1.55zm5.113-2.095l.677-.595L10 8.663l-2.188-.238.744-.654a1.543 1.543 0 00-1.115-.326 1.495 1.495 0 00-1.337 1.248l-.996-.144c.17-1.108 1.085-1.963 2.227-2.08a2.566 2.566 0 011.972.643z" id="device-mobile-sync-12px_svg__a"/></defs><use fill="#737373" xlink:href="#device-mobile-sync-12px_svg__a" fill-rule="evenodd"/></svg>
